X:132
T:Knights Of Snowdonia
M:6/8
L:1/8
Q:3/8=120
S:James Winder Ms, Lancashire, 1835-41
O:England
A:Wyresdale,Lancashire
K:C
Z:vmp.Chris Partington, Aug 2004
P:A
cd|"C"e2e edc|"Em"B2G GAB|"F"c2c cde|"G"gfe dcd|"C"e2e edc|"Em"B2G GAB|"F"c2c "G"dcd|"C"ecc "Fine"c:|
P:B
Bc|"G"d2d "Am"d2d|"Dm"def fga |1,3 "F"agg "C"gfe|"G"edd d :|2,4 "F"agf "G"fed|"C"c2c c :|4 "F"agf "G"fed "C"cGA "G"Bcd |
P:C
"C"cde e2e|efg g2g|gc'"F"a "C"gc'"F"a|"C"ga"F"f "G"e2d|"C"cde e2e|efg g2g|gc'"F"a "C"ga"F"f|"G"e2d "C"c|

